X:1
T:Title
%%score { ( 1 3 ) | ( 2 4 ) }
L:1/8
Q:1/4=104
M:4/4
K:F
V:1 treble nm="Grand Piano"
V:3 treble 
V:2 bass 
V:4 bass 
V:1
 [CFA]>[=B,F_A] [CF=A]>[DGB] [CFA]2 [CF]2 | F2 z2 z4 | [EG]>[_E^F] [=EG]>[FA] [GB]2 [Ec]2 | c6 z2 | %4
w: J.~R.~Murray * * * * *||||
 A>_A =A>B A2 [CF]2 | F2 z2 z4 | [EG]>[_E^F] [=EG]>[DA] [DB]2 [B,CE]2 | [A,CF]6 z2 | %8
w: ||||
 [EG]2 G2 [FA]2 A2 | [EG]2 F2 [CE]2 G2 | [FA]2 A2 [Ac]2 c2 | [GB]2 [FA]2 [EG]4 | %12
w: ||||
 [EG]2 G2 [FA]2 A2 | [EG]2 F2 [CE]2 G2 | [FA]2 A2 [EG]2 c2 | [CE]2 D2 C4 | %16
w: ||||
 [CFA]>[=B,F_A] [CF=A]>[DGB] [CFA]2 [CF]2 | F2 z2 z4 | [EG]>[_E^F] [=EG]>[FA] [GB]2 [Ec]2 | c6 z2 | %20
w: ||||
 A>_A =A>B A2 [CF]2 | F2 z2 z4 | [EG]>[_E^F] [=EG]>[DA] [DB]2 E2 |[M:8/4] F8 z8 |] %24
w: ||||
V:2
 F,>F, F,>F, F,2 A,,2 | B,,2 C,2 [F,A,]2 z2 | [C,C]>[C,C] [C,C]>[C,C] [C,C]2 [C,G,]2 | %3
 [F,A,F]6 z2 | [F,CF]>[F,=B,F] [F,CF]>[F,DF] [F,CF]2 A,,2 | B,,2 C,2 [F,A,]2 z2 | %6
 [C,C]>[C,C] [C,C]>[A,,^F,] [G,,G,]2 C,2 | F,6 z2 | z2 E2 z2 F2 | z2 D2 z2 E2 | %10
 z2[K:treble] F2 z2 A2 | E,2 F,2 C,4 | z2 E2 z2 F2 | z2 D2 z2 E2 | z2[K:treble] F2 z2 E2 | %15
 z2 =B,2 C,4 | F,>F, F,>F, F,2 A,,2 | B,,2 C,2 [F,A,]2 z2 | %18
 [C,C]>[C,C] [C,C]>[C,C] [C,C]2 [C,G,]2 | [F,A,F]6 z2 | %20
 [F,CF]>[F,=B,F] [F,CF]>[F,DF] [F,CF]2 A,,2 | B,,2 C,2 [F,A,]2 z2 | %22
 [C,C]>[C,C] [C,C]>[A,,^F,] [G,,G,]2 [C,B,C]2 |[M:8/4] [F,A,C]8 z8 |] %24
V:3
 x8 | [B,G]2- [B,EG]2 F2 z2 | x8 | x8 | x8 | [B,G]2- [B,EG]2 F2 z2 | x8 | x8 | x8 | x8 | x8 | x8 | %12
 x8 | x8 | x8 | x8 | x8 | [B,G]2- [B,EG]2 F2 z2 | x8 | x8 | x8 | [B,G]2- [B,EG]2 F2 z2 | x8 | %23
[M:8/4] x16 |] %24
V:4
 x8 | x8 | x8 | x8 | x8 | x8 | x8 | x8 | C,4 C,4 | C,4 C,4 | F,4[K:treble] F,4 | x8 | C,4 C,4 | %13
 C,4 C,4 | F,4[K:treble] G,4 | G,,4 z4 | x8 | x8 | x8 | x8 | x8 | x8 | x8 |[M:8/4] x16 |] %24

